X: 42259
T: Weapons Of Non Existence, The
R: jig
M: 6/8
K: Bdorian
|:BfB aBf|dfd edc|ABA eAf|efd cBA|
BfB aBg|BfB gBa|BBB aBg|ecA B3:|
|:F2F B2B|ddd dcB|E2E A2A|ced cBA|
BAB dBd|ede f2f|faf edc|dBB B3:|
|:FFF dFc-|c2d efa|f2a faf|eaf ecA|
FFF dFc-|c2d efa|a2a faf|ecA B3:|

